Numix/64/mimetypes/text-x-octave.svg

<?xml version="1.0" encoding="UTF-8" standalone="no"?>
<svg
   xmlns:dc="http://purl.org/dc/elements/1.1/"
   xmlns:cc="http://creativecommons.org/ns#"
   xmlns:rdf="http://www.w3.org/1999/02/22-rdf-syntax-ns#"
   xmlns:svg="http://www.w3.org/2000/svg"
   xmlns="http://www.w3.org/2000/svg"
   xmlns:sodipodi="http://sodipodi.sourceforge.net/DTD/sodipodi-0.dtd"
   xmlns:inkscape="http://www.inkscape.org/namespaces/inkscape"
   width="64px"
   height="64px"
   viewBox="0 0 64 64"
   version="1.1"
   id="svg2"
   inkscape:version="0.91 r13725"
   sodipodi:docname="text-x-octave.svg">
  <metadata
     id="metadata19">
    <rdf:RDF>
      <cc:Work
         rdf:about="">
        <dc:format>image/svg+xml</dc:format>
        <dc:type
           rdf:resource="http://purl.org/dc/dcmitype/StillImage" />
        <dc:title />
      </cc:Work>
    </rdf:RDF>
  </metadata>
  <defs
     id="defs17">
    <clipPath
       id="clipPath-883211809-3">
      <g
         transform="translate(0,-1004.3622)"
         id="g17-2">
        <path
           style="fill:#1890d0"
           inkscape:connector-curvature="0"
           d="m -24,13 c 0,1.105 -0.672,2 -1.5,2 -0.828,0 -1.5,-0.895 -1.5,-2 0,-1.105 0.672,-2 1.5,-2 0.828,0 1.5,0.895 1.5,2 z"
           transform="matrix(15.333333,0,0,11.5,414.99999,878.8622)"
           id="path19-9" />
      </g>
    </clipPath>
  </defs>
  <sodipodi:namedview
     pagecolor="#ffffff"
     bordercolor="#666666"
     borderopacity="1"
     objecttolerance="10"
     gridtolerance="10"
     guidetolerance="10"
     inkscape:pageopacity="0"
     inkscape:pageshadow="2"
     inkscape:window-width="1366"
     inkscape:window-height="713"
     id="namedview15"
     showgrid="false"
     inkscape:zoom="1"
     inkscape:cx="24.531408"
     inkscape:cy="17.428932"
     inkscape:window-x="0"
     inkscape:window-y="28"
     inkscape:window-maximized="1"
     inkscape:current-layer="svg2">
    <inkscape:grid
       type="xygrid"
       id="grid3363" />
  </sodipodi:namedview>
  <g
     id="surface1">
    <path
       style="stroke:none;fill-rule:nonzero;fill:#ef6f29;fill-opacity:1"
       d="M 10.671875 0 C 9.296875 0 8 1.355469 8 2.789062 L 8 61.210938 C 8 62.566406 9.375 64 10.671875 64 L 53.328125 64 C 54.625 64 56 62.566406 56 61.210938 L 56 18 L 38 0 Z M 10.671875 0 "
       id="path5" />
    <path
       style=" stroke:none;fill-rule:nonzero;fill:rgb(0%,0%,0%);fill-opacity:0.196078;"
       d="M 42 18 L 56 32 L 56 18 Z M 42 18 "
       id="path7" />
    <path
       style=" stroke:none;fill-rule:nonzero;fill:rgb(100%,100%,100%);fill-opacity:0.392157;"
       d="M 38 0 L 55.984375 18 L 40.757812 18 C 39.410156 18 38 16.574219 38 15.226562 Z M 38 0 "
       id="path9" />
  </g>
  <g
     id="g64"
     style="fill:#ffffff"
     transform="matrix(1.1666181,0,0,1.1667867,4.0005837,10.998921)">
    <g
       clip-path="url(#clipPath-883211809-3)"
       id="g66"
       style="fill:#ffffff">
      <!-- color: #eeeeee -->
      <g
         id="g68"
         style="fill:#ffffff">
        <path
           d="m 15.988,14.492 c -3.766,4.04 -2.852,11.574 2.031,16.828 4.887,5.25 11.898,6.227 15.66,2.184 3.762,-4.04 2.852,-11.578 -2.035,-16.824 -4.887,-5.254 -11.898,-6.23 -15.66,-2.187 m 3.414,1.68 c 2.957,-3.18 8.219948,-2.488 11.969948,1.543 3.75,4.03 4.479921,9.875 1.518921,13.05 -2.953,3.18 -8.308869,2.488 -12.054869,-1.539 -3.75,-4.03 -4.391,-9.871 -1.438,-13.05"
           id="path70"
           style="fill:#ffffff;fill-rule:nonzero;stroke:none"
           inkscape:connector-curvature="0"
           sodipodi:nodetypes="cccccccccc" />
        <path
           d="m 30.606276,15.427414 2.216162,0 c 0.334537,0 0.606276,0.271739 0.606276,0.606276 l 0,2.216162 c 0,0.334536 -0.271739,0.606276 -0.606276,0.606276 l -2.216162,0 C 30.27174,18.856128 30,18.584388 30,18.249852 l 0,-2.216162 c 0,-0.334537 0.27174,-0.606276 0.606276,-0.606276 m 0,0"
           id="path72"
           style="fill:#ffffff;fill-opacity:1;fill-rule:nonzero;stroke:none"
           inkscape:connector-curvature="0" />
        <path
           d="m 13.216009,20.574141 4.425411,0 c 0.673602,0 1.216009,0.543385 1.216009,1.212092 l 0,4.428348 c 0,0.669686 -0.543386,1.212093 -1.216009,1.212093 l -4.425411,0 C 12.542407,27.426674 12,26.883288 12,26.214581 l 0,-4.428348 c 0,-0.669686 0.543386,-1.212092 1.216009,-1.212092 m 0,0"
           id="path74"
           style="fill:#ffffff;fill-opacity:1;fill-rule:nonzero;stroke:none"
           inkscape:connector-curvature="0" />
        <path
           d="m 31.770127,29.145183 3.318675,0 c 0.501863,0 0.912198,0.406221 0.912198,0.908084 l 0,3.32176 c 0,0.501864 -0.409306,0.908085 -0.912198,0.908085 l -3.318675,0 c -0.501863,0 -0.912198,-0.406221 -0.912198,-0.908085 l 0,-3.32176 c 0,-0.501863 0.409307,-0.908084 0.912198,-0.908084 m 0,0"
           id="path76"
           style="fill:#ffffff;fill-opacity:1;fill-rule:nonzero;stroke:none"
           inkscape:connector-curvature="0" />
      </g>
    </g>
  </g>
</svg>

<svg xmlns="http://www.w3.org/2000/svg" viewBox="0 0 64 64">
 <defs>
  
 </defs>
 <g>
  <path d="m 10.672 0 c -1.375 0 -2.672 1.355 -2.672 2.789 l 0 58.42 c 0 1.355 1.375 2.789 2.672 2.789 l 42.656 0 c 1.297 0 2.672 -1.434 2.672 -2.789 l 0 -43.21 l -18 -18 m -27.328 0" style="fill:#ef6f29;fill-opacity:1;stroke:none;fill-rule:nonzero"/>
  <path d="m 42 18 l 14 14 l 0 -14 m -14 0" style="fill:#000;fill-opacity:0.196;stroke:none;fill-rule:nonzero"/>
  <path d="m 38 0 l 17.984 18 l -15.227 0 c -1.348 0 -2.758 -1.426 -2.758 -2.773 m 0 -15.227" style="fill:#fff;fill-opacity:0.392;stroke:none;fill-rule:nonzero"/>
 </g>
 <g transform="matrix(1.1666181,0,0,1.1667867,4.0005837,10.998921)" style="fill:#fff">
  <g style="clip-path:url(#clipPath-883211809-3);fill:#fff">
   <!-- color: #eeeeee -->
   <g style="fill:#fff">
    <path d="m 15.988 14.492 c -3.766 4.04 -2.852 11.574 2.031 16.828 4.887 5.25 11.898 6.227 15.66 2.184 3.762 -4.04 2.852 -11.578 -2.035 -16.824 -4.887 -5.254 -11.898 -6.23 -15.66 -2.187 m 3.414 1.68 c 2.957 -3.18 8.22 -2.488 11.97 1.543 3.75 4.03 4.48 9.875 1.519 13.05 -2.953 3.18 -8.309 2.488 -12.05 -1.539 -3.75 -4.03 -4.391 -9.871 -1.438 -13.05" style="fill:#fff;stroke:none;fill-rule:nonzero"/>
    <path d="m 30.606 15.427 2.216 0 c 0.335 0 0.606 0.272 0.606 0.606 l 0 2.216 c 0 0.335 -0.272 0.606 -0.606 0.606 l -2.216 0 c -0.335 0 -0.606 -0.272 -0.606 -0.606 l 0 -2.216 c 0 -0.335 0.272 -0.606 0.606 -0.606 m 0 0" style="fill:#fff;fill-opacity:1;stroke:none;fill-rule:nonzero"/>
    <path d="m 13.216 20.574 4.425 0 c 0.674 0 1.216 0.543 1.216 1.212 l 0 4.428 c 0 0.67 -0.543 1.212 -1.216 1.212 l -4.425 0 c -0.674 0 -1.216 -0.543 -1.216 -1.212 l 0 -4.428 c 0 -0.67 0.543 -1.212 1.216 -1.212 m 0 0" style="fill:#fff;fill-opacity:1;stroke:none;fill-rule:nonzero"/>
    <path d="m 31.77 29.15 3.319 0 c 0.502 0 0.912 0.406 0.912 0.908 l 0 3.322 c 0 0.502 -0.409 0.908 -0.912 0.908 l -3.319 0 c -0.502 0 -0.912 -0.406 -0.912 -0.908 l 0 -3.322 c 0 -0.502 0.409 -0.908 0.912 -0.908 m 0 0" style="fill:#fff;fill-opacity:1;stroke:none;fill-rule:nonzero"/>
   </g>
  </g>
 </g>
</svg>
